components/ui-node-icon/src/groupBy/groupBy.medium.svg

<svg width="24" height="24" viewBox="0 0 24 24" fill="none" xmlns="http://www.w3.org/2000/svg">
  <rect x="9" y="17" width="13" height="5" rx="2" fill="var(--tbl--colors--icons--transformation--tertiary)"/>
  <rect x="9" y="11" width="13" height="5" rx="2" fill="var(--tbl--colors--icons--transformation--secondary)"/>
  <path fill-rule="evenodd" clip-rule="evenodd" d="M4 4C2.89543 4 2 4.89543 2 6V7C2 7.17265 2.02188 7.34019 2.06301 7.5H2V13.5V17.5C2 19.1569 3.34315 20.5 5 20.5H8V18.5H5C4.44772 18.5 4 18.0523 4 17.5V14.5H8V12.5H4L4 9H20C21.1046 9 22 8.10457 22 7V6C22 4.89543 21.1046 4 20 4H4Z" fill="var(--tbl--colors--icons--transformation--primary)"/>
</svg>

<svg xmlns="http://www.w3.org/2000/svg" width="24" height="24" fill="none" viewBox="0 0 24 24">
  <rect width="13" height="5" x="9" y="17" fill="var(--tbl--colors--icons--transformation--tertiary)" rx="2"/>
  <rect width="13" height="5" x="9" y="11" fill="var(--tbl--colors--icons--transformation--secondary)" rx="2"/>
  <path fill="var(--tbl--colors--icons--transformation--primary)" fill-rule="evenodd" d="M4 4a2 2 0 0 0-2 2v1c0 .173.022.34.063.5H2v10a3 3 0 0 0 3 3h3v-2H5a1 1 0 0 1-1-1v-3h4v-2H4V9h16a2 2 0 0 0 2-2V6a2 2 0 0 0-2-2H4Z" clip-rule="evenodd"/>
</svg>
